X: 30674
T: JIM BROWN
C:
%R: reel
B: Elias Howe "The Musician's Companion" Part 3 1844 p.67 #4
S: http://imslp.org/wiki/The_Musician's_Companion_(Howe,_Elias)
Z: 2015 John Chambers <jc:trillian.mit.edu>
N: The rhythms at the strains' ends don't quite match; not fixed.
M: 2/4
L: 1/16
K: G
% - - - - - - - - - - - - - - - - - - - - - - - - -
GA |\
B2GG B2GG | BGAF D4 |\
DEFG ABcA | BGAF G4 ::\
GABd g2g2 | gdBG D4 |\
DEFG ABcA | BGAF G4 :|
% - - - - - - - - - - - - - - - - - - - - - - - - -
